X:7138393
T:The South Wind
C:Traditional
S:Randy Miller, YouTube, 2020, https://youtu.be/khXHWMkMQAY.
H:This is as Randy played it with two exceptions. He played it once on YouTube. The
H:beginning of the A and ending of the B part reflect how he would play them if he
H:were playing the tune multiple times. (This was verified with Randy.) In the
H:recording the lead-in notes for the A part are quarter notes, and the second
H:last measure of the B part is a C chord. I also include a fairly standard
H:New England version of the tune.
N:From the Lamprey River Band Tunebook, on NH Country Dance (URL below), along with many New England,
N:Canadian & Swedish tunes, and resources for abc notation and New England traditional music and dance.
%
N: Note #1: To preserve formatting (font, spacing, etc.), use the
N: file header at the URL below; just follow accompanying instructions.
%
N: Note #2: This abc code is optimized for use with abcm2ps, which is used by
N: EasyABC and other abc apps. To use abc2svg for display or printing look to see if there
N: is a file optimized for abc2svg. If not you may need to adjust the spacing in places.
%
Z:abc-transcription Peter Yarensky. I rely heavily on careful listening to the
Z:named sources aided by software to hear details. While not perfect, known
Z:substantial differences from other written sources receive careful attention.
Z:abc-copyright Peter Yarensky. You may reproduce this tune freely but
Z:please include the entire abc file including all the notes.
%%writefields HQSD
F:Tunes Home Page - https://fiddle-tunes.nhcountrydance.com/
F:abc Header & its Usage - https://fiddle-tunes.nhcountrydance.com/header-page/
M:3/4
L:1/4
R:Waltz
G:Couples Dances ~ Waltzes
N: Tune Tags ~ Waltz, New England Repertoire, Traditional
K:G
d/c/ |\
"G" B>A G | "G" B>c d | "D" A2  A | "D" A2 d/c/ | "G" B>A G | "C" {/EF}E>D E | "G" G2-"C" G | "G" G2 :|
d |\
"G" g2 g | "C" g>f e | "G" {/de}d2 d | "G" d2 "D" c | "G" B>A G | "Em" B>c d | "Am " A3 | "D" A2 d |
"G" g>a f | "C" g>f e | "G"  d2 B | "C" e d c | "G" B>A G | "D" A<c F | "G" G2-"C" G  | "G" G2 |]
%%vskip 20

